!!!!SEGMENT: pl-wtm--iii-40-856-1--001_wysocki-kasper-napoleon--quatre-krakowiaks-op-1-krakowiak-no-1.krn
!!!cenid: 18xx:4377
!!!COM: Wysocki, Kasper Napoleon
!!!COM-rismID: pe41024789
!!!CDT: 1810/12/06-1850/09/21
!!!CNT: Polish
!!!GTL: Quatre Krakowiaks op. 1
!!!OTL: Krakowiak. No. 1.
!!!OMV: 001
!!!PDT:
!!!AGN: Secular; Krakowiak
!!!SMS-siglum: PL-Wtm
!!!SMS-shelfmark: III.40.856/1
!!!SMS-shelfwork: 001-001 G
!!!SMS-variant:
!!!SMS-altvar:
!!!NIFC-rismSourceID: 1001153066
!!!NIFC-rismChildID: 1001153066
!!!NIFC-islandoraID: pl-wtm:13649
!!!URL-pdf-islandora: https://repozytorium.nifc.pl/islandora/object/pl-wtm:13649/datastream/PDF/view
!!!URL-scan: https://polish.musicsources.pl/pl/lokalizacje/galeria/druki-muzyczne/16672/2 @EN{Scan on Polish Music Sources Website} @PL{Skany w portalu Dziedzictwo Muzyki Polskiej w otwartym dostępie}
!!!ONB-nifc: UWAGA: skan 2-3.
!!!OMD: Allegro determinato.
!!!AIN: 1 piano
!!!key:
**kern	**kern	**fing	**dynam
*part1	*part1	*part1	*part1
*staff2	*staff1	*staff1	*
*I"Piano	*I"Piano	*	*
*I'pf	*I'pf	*	*
*Ipiano	*Ipiano	*	*
*ICklav	*ICklav	*	*
*IGsolo	*IGsolo	*	*
*clefF4	*clefG2	*	*
*k[]	*k[]	*	*
*C:	*C:	*	*
*M2/4	*M2/4	*	*
=1	=1	=1	=1
*	*	*	*^
*	*ped	*	*	*
!	!	!	!LO:DY:b	!LO:DY:b=2:rj
8CC'/	(4g^^\ [4ee [4gg	.	f	sf
8G\L 8c 8e	.	.	.	.
8G\ 8c 8e	16ee\LL] 16gg]	.	.	.
.	16dd#X\ 16ff#X	2 3	.	.
8G\J 8c 8e	16ee\ 16gg	1 4	.	.
.	16dd#\JJ 16ff#	.	.	.
*	*	*	*v	*v
=2	=2	=2	=2
8C'\L	16ee\LL 16gg	.	.
.	16dd#X\ 16ff#X	.	.
8G'\J 8c 8e	16ee\ 16gg	.	.
.	16dd#\JJ 16ff#	.	.
8C'\L	16ee\LL 16gg	.	.
.	16dd#\ 16ff#	.	.
8G'\J 8c 8e	16ee\ 16gg	.	.
.	16dd#\JJ 16ff#	.	.
=3	=3	=3	=3
8C'\L	16ee\LL 16gg	.	.
.	16dd#X\ 16ff#X	.	.
8G'\J 8c 8e	16ee\ 16gg	.	.
.	16dd#\JJ 16ff#	.	.
8C'\L	16ee\LL 16gg	.	.
.	16dd#\ 16ff#	.	.
8G'\J 8c 8e	16ee\ 16gg	.	.
.	16dd#\JJ 16ff#	.	.
=4	=4	=4	=4
8C'\L	16ee\LL 16gg	.	.
.	16dd#X\ 16ff#X	.	.
8G'\J 8c 8e	16ee\ 16gg	.	.
.	16dd#\JJ 16ff#	.	.
8C'\L	16ee\LL 16gg	.	.
.	16dd#\ 16ff#	.	.
8G'\J 8c 8e	16ee\ 16gg	.	.
.	16dd#\JJ 16ff#	.	.
!!LO:LB:g=original
=5	=5	=5	=5
*	*Xped	*	*
8C\L	8ee'\) 8gg	.	.
.	(>8qgg/	.	.
(8G\	4ccc^^\)	.	.
8c\ 8e	.	.	.
8G\J)	8cc\	.	.
=6	=6	=6	=6
8GG'/	8dd'\L	.	p
.	(>8qdd/	.	.
(8G\L	8ff'\J)	.	.
8B\ 8f	4g^^/	.	.
8G\J)	.	.	.
=7	=7	=7	=7
*^	*	*	*
8r	2C\	(8.cc\L	.	<
8G/L 8e	.	.	.	.
.	.	16dd\K	.	.
8G/ 8e	.	8ee\)	.	.
.	.	(>8qee/	.	.
8G/J 8e	.	8gg'\J)	.	[[
*v	*v	*	*	*
=8	=8	=8	=8
8GG'/	8dd'\L	.	.
.	(>8qdd/	.	.
(8G\L	8ff'\J)	.	.
8B\ 8f	4g^^/	.	.
8G\J)	.	.	.
=9	=9	=9	=9
*^	*	*	*
8r	2C\	(8.cc\L	.	.
8G/L 8e	.	.	.	.
.	.	16dd\K	.	.
8G/ 8e	.	8ee'\)	.	.
8G/J 8e	.	8dd#X'\J	.	<
=10	=10	=10	=10	=10
.	.	16qqee/LL	.	.
.	.	16qqff#X/JJ	.	.
8r	2C\	(8ee\L	.	.
8E/L 8G 8A#X	.	8dd#X'\)	.	.
8E/ 8G 8A#	.	8ee'\	.	.
8E/J 8G 8A#	.	8ff#'\J	.	[[
=11	=11	=11	=11	=11
8BB\L	4BB/	(8.gg\L	.	f >
8E\J 8G 8B	.	.	.	.
.	.	16aa\K	.	.
8BB\L	4BB/	8bb'\)	.	.
8F#X\J 8A 8B	.	(8dd#X\J	.	]]
*v	*v	*	*	*
=12	=12	=12	=12
8E\ 8G 8B	8ee'\)	.	.
.	16qqaa/LL	.	.
.	16qqbb/JJ	.	.
8r	(8ff\L 8aa	.	.
4r	8ee'\) 8gg	.	.
.	8dd#X'\J 8ff#X	.	.
!!LO:LB:g=original
=13	=13	=13	=13
*	*	*	*^
*	*ped	*	*	*
!	!	!	!LO:DY:b:rj	!LO:DY:b=2
8CC'/	(4g^^\ [4ee [4gg	.	f	sf
8G\L 8c 8e	.	.	.	.
8G\ 8c 8e	16ee\LL] 16gg]	.	.	.
.	16dd#X\ 16ff#X	.	.	.
8G\J 8c 8e	16ee\ 16gg	.	.	.
.	16dd#\JJ 16ff#	.	.	.
*	*	*	*v	*v
=14	=14	=14	=14
8C'\L	16ee\LL 16gg	.	.
.	16dd#X\ 16ff#X	.	.
8G'\J 8c 8e	16ee\ 16gg	.	.
.	16dd#\JJ 16ff#	.	.
8C'\L	16ee\LL 16gg	.	.
.	16dd#\ 16ff#	.	.
8G'\J 8c 8e	16ee\ 16gg	.	.
.	16dd#\JJ 16ff#	.	.
=15	=15	=15	=15
8C'\L	16ee\LL 16gg	.	.
.	16dd#X\ 16ff#X	.	.
8G'\J 8c 8e	16ee\ 16gg	.	.
.	16dd#\JJ 16ff#	.	.
8C'\L	16ee\LL 16gg	.	.
.	16dd#\ 16ff#	.	.
8G'\J 8c 8e	16ee\ 16gg	.	.
.	16dd#\JJ 16ff#	.	.
=16	=16	=16	=16
8C'\L	16ee\LL 16gg	.	.
.	16dd#X\ 16ff#X	.	.
8G'\J 8c 8e	16ee\ 16gg	.	.
.	16dd#\JJ 16ff#	.	.
8C'\L	16ee\LL 16gg	.	.
.	16dd#\ 16ff#	.	.
8G'\J 8c 8e	16ee\ 16gg	.	.
.	16dd#\JJ 16ff#	.	.
=17	=17	=17	=17
*	*Xped	*	*
8C\L	8ee'\) 8gg	.	.
.	8qgg/	.	.
(8G\	(8.ddd\L	.	>
8c\ 8e	.	.	.
.	16ccc\L	.	.
8G\J)	16gg\	.	.
.	16ee\JJ	.	]]
!!LO:LB:g=original
=18	=18	=18	=18
8GG/	8dd'\)	.	p
(8G\L	(16ff\LL	.	.
.	16dd\JJ	.	.
8B\ 8f	4g/)	.	.
8G\J)	.	.	.
=19	=19	=19	=19
*^	*	*	*
8r	2C\	(8.cc\L	.	<
8G/L 8e	.	.	.	.
.	.	16dd\K	.	.
8G/ 8e	.	8ee'\)	.	.
.	.	8qee/	.	.
8G/J 8e	.	8gg'\J	.	[[
*v	*v	*	*	*
=20	=20	=20	=20
8GG'/	8dd'\	.	.
(8G\L	(32ff\LLL	.	.
.	32dd\	.	.
.	32ff\	.	.
.	32dd\JJJ	.	.
8B\ 8f	4g/)	.	.
8G\J)	.	.	.
=21	=21	=21	=21
*^	*	*	*
8r	2C\	(8.cc\L	.	<
8G/L 8e	.	.	.	.
.	.	16dd\K	.	.
8G/ 8e	.	8ee'\)	.	.
8G/J 8e	.	8dd#X'\J	.	[[
=22	=22	=22	=22	=22
.	.	16qqee/LL	.	.
.	.	16qqff#X/JJ	.	.
8r	2C\	(8ee\L	.	.
8E/L 8G 8A#X	.	8dd#X\)	.	.
8E/ 8G 8A#	.	8ee'\	.	.
8E/J 8G 8A#	.	8ff#'\J	.	.
=23	=23	=23	=23	=23
8BB\L	4BB/	(8.gg\L	.	.
8E\J 8G 8B	.	.	.	.
.	.	16aa\	.	.
8BB\L	4BB/	8bb'\)	.	.
8F#X\J 8A 8B	.	(8dd#X\J	.	.
*v	*v	*	*	*
=24	=24	=24	=24
4E\ 4G 4B	16ee'\)	.	.
*	*ped	*	*
.	(16g\LL	.	.
.	16gg\	.	.
.	16g\JJ	.	.
4r	8gg'\L)	.	.
.	(16ff#X\L	.	.
.	16gg\JJ	.	.
!!LO:LB:g=original
=25	=25	=25	=25
*^	*^	*	*
8GG'/	4ryy	8gg'\L)	4ryy	.	.
*clefG2	*	*	*	*	*
8G/ 8B 8f	.	8gg'\J 8ddd	.	.	f
(8f/L	4G\ 4B	(8ddd/L	4gg\	.	.
16e/L	.	16ccc#X/L	.	.	.
*	*	*Xped	*	*	*
16f/JJ)	.	16ddd/JJ)	.	.	.
=26	=26	=26	=26	=26	=26
(8.c/L	2G\	8.eee/L	(8.gg\L	.	.
16d/K	.	16ddd/K	16gg\K	.	.
8e/	.	8cccn/	8gg\	.	.
8d/J)	.	8bb/J	8gg\J)	.	.
=27	=27	=27	=27	=27	=27
(8.c/L	2G\	8aa/L	(8ff#X\L	.	<
.	.	8bb/	8ee\	.	.
16d/K	.	.	.	.	.
8e/	.	8ccc/	8dd\	.	.
8f#X/J)	.	8ddd/J	8cc\J)	.	[
=28	=28	=28	=28	=28	=28
(8g/L	4.G\	8bb/L	(8dd\L	.	>
8f#X/	.	8aa/	8cc\	.	.
8g/J)	.	8gg/J	8b\J)	.	]
8r	8ryy	(16ff#X\LL	8ryy	.	.
.	.	16gg\JJ	.	.	.
*clefF4	*	*	*	*	*
=29	=29	=29	=29	=29	=29
*	*	*ped	*	*	*
8GG'/	4ryy	8gg'\L)	4ryy	.	.
*clefG2	*	*	*	*	*
8G'/ 8B 8fn	.	8gg'\J 8ddd	.	.	.
(8f/L	4G\ 4B	(8ddd/L	4gg\	.	.
16e/L	.	16ccc#X/L	.	.	.
*	*	*Xped	*	*	*
16f/JJ)	.	16ddd/JJ)	.	.	.
=30	=30	=30	=30	=30	=30
(8.c/L	2G\	8.eee/L	(8.gg\L	.	.
16d/K	.	16ddd/K	16gg\K	.	.
8e/	.	8cccn/	8gg\	.	.
8d/J)	.	8bb/J	8gg\J)	.	.
=31	=31	=31	=31	=31	=31
8.c/L	2G\	(8aa/L	8ff#X\	.	>
.	.	8ddd^^</	4.cc\	.	.
16d/K	.	.	.	.	.
8a/	.	8.ff#/	.	.	.
8f#X/J	.	.	.	.	.
.	.	16dd/Jk)	.	.	]]
!!LO:LB:g=original
=32	=32	=32	=32	=32	=32
8g/L	4G\	8gg/L	2b\	.	p
8d/J	.	8bb/J	.	.	.
8g/L	4G\	(16ccc/LL	.	.	.
.	.	16bb/	.	.	.
8d/J	.	16aa/	.	.	.
.	.	16gg/JJ)	.	.	.
=33	=33	=33	=33	=33	=33
8c/L	2G\	(8aa/L	8ff#X\	.	.
8d/	.	8ddd^^</	4.cc\	.	>
8a/	.	8.ff#/	.	.	.
8f#X/J	.	.	.	.	.
.	.	16dd/Jk)	.	.	.
=34	=34	=34	=34	=34	=34
8g/L	4G\	8gg'/L	2b'\	.	] p
8d/J	.	8bb'/J	.	.	.
8g/L	4G\	(16ccc/LL	.	.	.
.	.	16bb/	.	.	.
8d/J	.	16aa/	.	.	.
.	.	16gg/JJ)	.	.	.
=35	=35	=35	=35	=35	=35
8c/L	2G\	(8aa/L	8ff#X\	.	.
8d/	.	8ddd^^</	4.cc\	.	>
8a/	.	8.ff#/	.	.	.
8f#X/J	.	.	.	.	.
.	.	16dd/Jk)	.	.	.
=36	=36	=36	=36	=36	=36
8c/L	2G\	(8aa/L	8ff#X\	.	]
8d/	.	8ddd^^/	4.cc\	.	>
8a/	.	8.ff#/	.	.	.
8f#X/J	.	.	.	.	.
.	.	16dd/Jk)	.	.	.
*v	*v	*	*	*	*
*	*v	*v	*	*
=37	=37	=37	=37
8G/ 8g	8b\ 8gg	.	]
*clefF4	*	*	*
*	*8va	*	*
*ped	*	*	*
8GG/L 8G	8ddd\L 8fff	.	f
.	16qqfff/LL	.	.
.	16qqggg/JJ	.	.
8GG/ 8G	(8ddd\ 8fff	.	.
8GG/J 8G	8ccc'\J) 8eee	.	.
=38	=38	=38	=38
.	16qqddd/LL	.	.
.	16qqeee/JJ	.	.
8GG/L 8G	(8bb\L 8ddd	.	.
8GG/ 8G	8aa'\J) 8ccc	.	.
.	16qqbb/LL	.	.
.	16qqccc/JJ	.	.
8GG/ 8G	(8gg/L 8bb	.	.
8GG/J 8G	8ff'/J) 8aa	.	.
*	*X8va	*	*
!!LO:PB:g=original
=39	=39	=39	=39
.	16qqgg/LL	.	.
!	!LO:TX:a:t=loco	!	!
.	16qqaa/JJ	.	.
8GG/L 8G	8ee'\ 8gg	.	.
16r	16r	.	.
16GG/K 16G	16dd#X\ 16ff#X	.	.
8GG/ 8G	8ddn\L 8ffn	.	.
8GG/J 8G	8cc\J 8ee	.	.
=40	=40	=40	=40
*	*^	*	*
8GG/L 8G	8b\L 8dd	4ryy	.	.
8GG/J 8G	[<8b\J 8dd	.	.	.
4GG/ 4G	8.ff/L 8.aa	4b\]	.	>]
*Xped	*	*	*	*
.	16ee/Jk 16gg	.	.	.
*	*v	*v	*	*
=41	=41	=41	=41
*	*	*	*^
*	*ped	*	*	*
!	!	!	!LO:DY:b	!LO:DY:b=2:rj
8CC'/	(4g^^\ [4ee [4gg	.	ff	f
8G\L 8c 8e	.	.	.	.
8G\ 8c 8e	16ee\LL] 16gg]	.	.	.
.	16dd#X\ 16ff#X	.	.	.
8G\J 8c 8e	16ee\ 16gg	.	.	.
.	16dd#\JJ 16ff#	.	.	.
*	*	*	*v	*v
=42	=42	=42	=42
8C'\L	16ee\LL 16gg	.	.
.	16dd#X\ 16ff#X	.	.
8G'\J 8c 8e	16ee\ 16gg	.	.
.	16dd#\JJ 16ff#	.	.
8C'\L	16ee\LL 16gg	.	.
.	16dd#\ 16ff#	.	.
8G'\J 8c 8e	16ee\ 16gg	.	.
.	16dd#\JJ 16ff#	.	.
=43	=43	=43	=43
8C'\L	16ee\LL 16gg	.	.
.	16dd#X\ 16ff#X	.	.
8G'\J 8c 8e	16ee\ 16gg	.	.
.	16dd#\JJ 16ff#	.	.
8C'\L	16ee\LL 16gg	.	.
.	16dd#\ 16ff#	.	.
8G'\J 8c 8e	16ee\ 16gg	.	.
.	16dd#\JJ 16ff#	.	.
!!LO:LB:g=original
=44	=44	=44	=44
8C'\L	16ee\LL 16gg	.	.
.	16dd#X\ 16ff#X	.	.
8G'\J 8c 8e	16ee\ 16gg	.	.
.	16dd#\JJ 16ff#	.	.
8C'\L	16ee\LL 16gg	.	.
.	16dd#\ 16ff#	.	.
8G'\J 8c 8e	16ee\ 16gg	.	.
.	16dd#\JJ 16ff#	.	.
*	*Xped	*	*
=45	=45	=45	=45
8C'\L	8ee'\) 8gg	.	.
.	8qgg/	.	.
(8G\	(>4ccc^^\	.	.
8c\ 8e	.	.	.
8G\J)	8cc\	.	.
=46	=46	=46	=46
8GG'/	8dd'\L)	.	p
.	8qdd/	.	.
(8G\L	8ff'\J	.	.
8B\ 8f	4g^^/	.	.
8G\J)	.	.	.
=47	=47	=47	=47
*^	*	*	*
8r	2C\	(8.cc\L	.	<
8G/L 8e	.	.	.	.
.	.	16dd\K	.	.
8G/ 8e	.	8ee\)	.	.
.	.	8qee/	.	.
8G/J 8e	.	8gg'\J	.	[[
*v	*v	*	*	*
=48	=48	=48	=48
8GG'/	(8dd'\L	.	>
(8G\L	16ff\L	.	.
.	16dd\JJ	.	.
8B\ 8f	4g/)	.	]]
8G\J)	.	.	.
=49	=49	=49	=49
*^	*	*	*
8r	2C\	(8.cc\L	.	p
8G/L 8e	.	.	.	.
.	.	16dd\K	.	.
8G/ 8e	.	8ee\)	.	.
.	.	(8qee/	.	.
8G/J 8e	.	8ee\J) 8ccc	.	.
*v	*v	*	*	*
=50	=50	=50	=50
.	(8qff/	.	.
8FF'/	(8.ff\L) 8.ddd	.	.
(8F\L	.	.	.
.	16ccc\Jk	.	.
8A\ 8f	4dd\)	.	.
8F\J)	.	.	.
!!LO:LB:g=original
=51	=51	=51	=51
.	(8qf#X/	.	.
8GG'/	8g\L)	.	.
.	(8qg/	.	.
(8G\L	8b\)	.	.
.	(8qb/	.	.
8B\ 8f	8dd\)	.	.
.	(8qdd/	.	.
8G\J)	8ffn\J)	.	.
=52	=52	=52	=52
.	(8qee/	.	.
*^	*	*	*
8r	2C\	8cc\L) 8ee	.	.
.	.	(8qdd/	.	.
8G/ 8c	.	8g\J) 8dd	.	.
.	.	(8qcc/	.	.
4G/ 4c	.	4e/) 4cc	.	.
=53	=53	=53	=53	=53
8r	2C\	(8.cc\L 8.ee	.	<
8G/L 8e	.	.	.	.
.	.	16dd\K 16ff	.	.
8G/ 8e	.	8ee'\) 8gg	.	.
8G/J 8e	.	8ee\J 8ccc	.	.
*v	*v	*	*	*
=54	=54	=54	=54
*	*8va	*	*
.	16qqfff/LL	.	[
.	16qqggg/JJ	.	.
*ped	*	*	*
8FF'/	(8ddd\L 8fff	.	f
(8F\L	8ccc'\J) 8eee	.	.
.	16qqddd/LL	.	.
.	16qqeee/JJ	.	.
8A\ 8f	(8bb\L 8ddd	.	.
8F\J)	8aa'\J) 8ccc	.	.
*Xped	*	*	*
=55	=55	=55	=55
.	16qqbb/LL	.	.
.	16qqccc/JJ	.	.
*ped	*	*	*
8GG'/	(8gg/L 8bb	.	.
[<8G\	8ff'/J) 8aa	.	.
*	*X8va	*	*
!	!LO:TX:a:t=loco.	!	!
4G\] 4B 4f	(8g^^\L 8dd 8gg	.	.
*Xped	*	*	*
.	16ff\L	.	.
.	16dd\JJ)	.	.
=56	=56	=56	=56
.	16qqcc/LL	.	.
.	16qqdd/JJ	.	.
*	*^	*	*
8C\L 8G 8c	(8cc/L	4e\	.	.
8C\J 8G 8c	8b/J)	.	.	.
4C\ 4G 4c	4cc^^/	4e\	.	.
*	*v	*v	*	*
=57||	=57||	=57||	=57||
*^	*	*	*
!	!	!LO:TX:a:t=jubiloso.	!	!
(8.C/L 8.E	4.AA\	(8.a\L	.	p
16D/K 16F	.	16b\K	.	.
8C/J) 8E	.	8.cc'\)	.	.
[8AA/ N(>8F	8ryy	.	.	>
.	.	16dd\Jk	.	]]
*v	*v	*	*	*
=58	=58	=58	=58
.	16qqcc/LL	.	.
.	16qqdd/JJ	.	.
8AA/L] 8EN)	(8cc\L	.	.
8AA/J 8D 8F 8G#X	8b\J)	.	.
4AA/ 4C 4E 4A	4a^^/	.	.
!!LO:LB:g=original
=59	=59	=59	=59
.	16qqcc/LL	.	.
.	16qqdd/JJ	.	.
8r	(8cc\L	.	.
8AA/ 8D 8F 8G#X	8b\J)	.	.
4AA/ 4C 4E 4A	4a^^/	.	.
=60	=60	=60	=60
.	16qqcc/LL	.	.
.	16qqdd/JJ	.	.
8r	(8cc\L	.	.
8AA/ 8D 8F 8G#X	8b\J)	.	.
4AA/ 4C 4E 4A	4a^^/	.	.
=61	=61	=61	=61
8r	(8.dd\L	.	<
8AA/L 8D 8F 8A	.	.	.
.	16ee\K	.	.
8AA/ 8D 8F 8A	8ff'\J)	.	.
8AA/J 8D 8F 8A	(16aa\LL	.	.
.	16ff'\JJ)	.	[
=62	=62	=62	=62
.	16qqee/LL	.	.
.	16qqff/JJ	.	.
8r	(8ee\L	.	.
8AA\ 8D 8F 8B	8dd#X\J)	.	>
4AA\ 4E 4c	4ee^^\	.	]]
=63	=63	=63	=63
8r	(8.dd\L	.	<
8AA\L 8D 8F 8A	.	.	.
.	16ee\K	.	.
8AA\ 8D 8F 8A	8ff'\J)	.	.
8AA\J 8D 8F 8A	(16aa\LL	.	.
.	16ff'\JJ)	.	[[
=64	=64	=64	=64
.	16qqee/LL	.	.
.	16qqff/JJ	.	.
8r	(8ee\L	.	.
8AA\ 8D 8F 8B	8dd#X\J)	.	.
4AA\ 4E 4c	4ee^^\	.	.
=65	=65	=65	=65
.	16qqddn/LL	.	p
.	16qqee/JJ	.	.
8r	(8dd\L	.	.
[8E\ 8A 8e	8cc\J	.	.
4E\] 4G#X 4d	4b\)	.	.
=66	=66	=66	=66
.	16qqcc/LL	.	.
.	16qqdd/JJ	.	.
8r	(8cc\L	.	.
8E\ 8G#X 8d	8b\J	.	.
4A\ 4c	4a/)	.	.
!!LO:LB:g=original
=67	=67	=67	=67
8r	(8.g/L	.	.
8BB\ 8E 8G 8B	.	.	.
.	16a/K	.	.
8r	8.b/	.	.
8BB\ 8F#X 8A	.	.	.
.	16d#X/Jk	.	.
=68	=68	=68	=68
8E\ 8G	8e/L)	.	.
8EE\ 8E	8G<'>/J 8B< 8d#X	.	.
4EE\ 4E	4G<'>/ 4B< 4e	.	.
=69	=69	=69	=69
*^	*	*	*
(8.C/L 8.E	4.AA\	(8.a\L 8.aa	.	f
16D/K 16F	.	16b\K 16bb	.	.
8C/J) 8E	.	8cc\J) 8ccc	.	.
(>[8AA/ 8F	8ryy	8dd\ 8ddd	.	>]
*v	*v	*	*	*
=70	=70	=70	=70
.	8qddd/	.	.
8AA/L]) 8E	8cc\L 8ccc	.	.
.	8qccc/	.	.
8AA/J 8D 8F 8G#X	8b\J 8bb	.	.
.	8qbb/	.	.
[4AA/ [4C [4E [4A	4a\ 4aa^^	.	.
=71	=71	=71	=71
.	8qddd/	.	.
8AA/L] 8C] 8E] 8A]	8cc\L 8ccc	.	.
.	8qccc/	.	.
8AA/J 8D 8F 8G#X	8b\J 8bb	.	.
.	8qbb/	.	.
[4AA/ [4C [4E [4A	4a\ 4aa^^	.	.
=72	=72	=72	=72
.	8qddd/	.	.
8AA/L] 8C] 8E] 8A]	8cc\L 8ccc	.	.
.	8qccc/	.	.
8AA/J 8D 8F 8G#X	8b\J 8bb	.	.
.	8qbb/	.	.
4AA/ 4C 4E 4A	4a\ 4aa^^	.	.
=73	=73	=73	=73
*	*^	*	*
8r	(8.dd\L 8.ddd	4.ryy	.	<
8AA/L 8D 8F 8A	.	.	.	.
.	16ee\K 16eee	.	.	.
8AA/ 8D 8F 8A	8ff'\J) 8fff	.	.	.
*	*v	*v	*	*
*	*8va	*	*
*	*^	*	*
8AA/J 8D 8F 8A	(16aaa/LL	8aa\	.	.
.	16fff'>/JJ)	.	.	[
*	*v	*v	*	*
!!LO:LB:g=original
=74	=74	=74	=74
.	16qqeee/LL	.	.
.	16qqfff/JJ	.	.
8r	(8ee/L 8eee	.	.
8AA\ 8D 8F 8B	8dd#X/J) 8ddd#X	.	.
4AA\ 4E 4c	4ee^^/ 4eee	.	.
=75	=75	=75	=75
*	*^	*	*
8r	(8.dd/L 8.ddd	4.ryy	.	<
8AA\L 8D 8F 8A	.	.	.	.
.	16ee/K 16eee	.	.	.
8AA\ 8D 8F 8A	8ff'/J) 8fff	.	.	.
8AA\J 8D 8F 8A	(<16aaa/LL	8aa\	.	.
.	16fff'</JJ)	.	.	[
*	*v	*v	*	*
=76	=76	=76	=76
.	16qqeee/LL	.	.
.	16qqfff/JJ	.	.
8r	(8ee/L 8eee	.	.
8AA\ 8D 8F 8B	8dd#X/J) 8ddd#X	.	.
4AA\ 4E 4c	4ee^^/ 4eee	.	.
=77	=77	=77	=77
.	8qeee/	.	.
8r	(8dd/L 8ddd	.	p
.	8qddd/	.	.
(8E\ 8A 8e	8cc/J 8ccc	.	.
.	8qccc/	.	.
4E\) 4G#X 4d	4b/) 4bb	.	.
=78	=78	=78	=78
.	8qddd/	.	.
8r	(8dd/L 8ddd	.	.
.	8qccc/	.	.
(8E\ 8G#X 8d	8cc/J 8ccc	.	.
.	8qbb/	.	.
4A\) 4c	4b/) 4bb	.	.
*	*X8va	*	*
=79	=79	=79	=79
!	!LO:TX:a:t=loco.	!	!
8r	(8.g/L	.	.
8BB'\ 8E 8G 8B	.	.	.
.	16a/K	.	.
8r	8.b/	.	.
8BB'\ 8F#X 8A 8B	.	.	.
.	16d#X/Jk	.	.
=80	=80	=80	=80
8E\ 8G 8B	8e/)	.	.
*	*ped	*	*
!	!	!	!LO:DY:b=2:rj
8EE/ 8E	8ee^^\ 8gg	.	sf
4r	16ee\LL 16gg	.	.
.	16dd#X\ 16ff#X	.	.
.	16ee\ 16gg	.	.
*	*Xped	*	*
.	16dd#\JJ 16ff#	.	.
!!LO:PB:g=original
=81||	=81||	=81||	=81||
*	*	*	*^
*	*ped	*	*	*
!	!	!	!LO:DY:b:rj	!LO:DY:b=2:rj
8CC/	(4g^^\ [4ee [4gg	.	f	sf
8G\L 8c 8e	.	.	.	.
8G\ 8c 8e	16ee\LL] 16gg]	.	.	.
.	16dd#X\ 16ff#X	.	.	.
8G\J 8c 8e	16ee\ 16gg	.	.	.
.	16dd#\JJ 16ff#	.	.	.
*	*	*	*v	*v
=82	=82	=82	=82
8C'\L	16ee\LL 16gg	.	.
.	16dd#X\ 16ff#X	.	.
8G'\J 8c 8e	16ee\ 16gg	.	.
.	16dd#\JJ 16ff#	.	.
8C'\L	16ee\LL 16gg	.	.
.	16dd#\ 16ff#	.	.
8G'\J 8c 8e	16ee\ 16gg	.	.
.	16dd#\JJ 16ff#	.	.
=83	=83	=83	=83
8C'\L	16ee\LL 16gg	.	.
.	16dd#X\ 16ff#X	.	.
8G'\J 8c 8e	16ee\ 16gg	.	.
.	16dd#\JJ 16ff#	.	.
8C'\L	16ee\LL 16gg	.	.
.	16dd#\ 16ff#	.	.
8G'\J 8c 8e	16ee\ 16gg	.	.
.	16dd#\JJ 16ff#	.	.
=84	=84	=84	=84
8C'\L	16ee\LL 16gg	.	.
.	16dd#X\ 16ff#X	.	.
8G'\J 8c 8e	16ee\ 16gg	.	.
.	16dd#\JJ 16ff#	.	.
8C'\L	16ee\LL 16gg	.	.
.	16dd#\ 16ff#	.	.
8G'\J 8c 8e	16ee\ 16gg	.	.
*	*Xped	*	*
.	16dd#\JJ 16ff#	.	.
!!LO:LB:g=original
=85	=85	=85	=85
8C'\L	8ee'\) 8gg	.	.
.	8qgg/	.	.
(8G\	4ccc^^\	.	.
8c\ 8e	.	.	.
8G\J)	8cc\	.	.
=86	=86	=86	=86
8GG'/	8dd'\L	.	p
.	8qdd/	.	.
(8G\L	8ff'\J	.	.
8B\ 8f	4g^^/	.	.
8G\J)	.	.	.
=87	=87	=87	=87
*^	*	*	*
8r	2C\	(8.cc\L	.	.
8G/L 8e	.	.	.	.
.	.	16dd\K)	.	.
8G/ 8e	.	8ee'\	.	.
.	.	(<8qee/	.	.
8G/J 8e	.	8gg'\J)	.	.
*v	*v	*	*	*
=88	=88	=88	=88
8GG'/	8dd'\L	.	.
.	8qdd/	.	.
(8G\L	8ff'\J	.	.
8B\ 8f	4g^^/	.	.
8G\J)	.	.	.
=89	=89	=89	=89
*^	*	*	*
8r	2C\	(8.cc\L	.	.
8G/L 8e	.	.	.	.
.	.	16dd\K	.	.
8G/ 8e	.	8ee\)	.	.
8G/J 8e	.	8dd#X'\J	.	<
=90	=90	=90	=90	=90
.	.	16qqee/LL	.	.
.	.	16qqff#X/JJ	.	.
8r	2C\	(8ee\L	.	.
8E/L 8G 8A#X	.	8dd#X\)	.	.
8E/ 8G 8A#	.	8ee'\	.	.
8E/J 8G 8A#	.	8ff#X'\J	.	[[
=91	=91	=91	=91	=91
8BB\L	4BB/	(8.gg\L	.	.
8E\J 8G 8B	.	.	.	.
.	.	16aa\K	.	.
8BB\L	4BB/	8bb\)	.	.
8F#X\J 8A 8B	.	(8dd#X\J	.	.
*v	*v	*	*	*
!!LO:LB:g=original
=92	=92	=92	=92
*	*^	*	*
8E\ 8G 8B	8ee'/)	8r	.	.
!	!	!	!	!LO:DY:rj
8r	8aa/	(>16ff\LL	.	f
.	.	16f\JJ)	.	.
4r	8gg/	(>16ee\LL	.	.
.	.	16e\JJ)	.	.
.	8ff#X/	(>16dd#X\LL	.	.
.	.	16d#X\JJ)	.	.
*	*v	*v	*	*
=93	=93	=93	=93
*	*	*	*^
*	*ped	*	*	*
!	!	!	!LO:DY:b	!LO:DY:b=2:rj
8CC/	(4g^^\ [4ee [4gg	.	f	sf
8G\L 8c 8e	.	.	.	.
8G\ 8c 8e	16ee\LL] 16gg]	.	.	.
.	16dd#X\ 16ff#X	.	.	.
8G\J 8c 8e	16ee\ 16gg	.	.	.
.	16dd#\JJ 16ff#	.	.	.
*	*	*	*v	*v
=94	=94	=94	=94
8C'\L	16ee\LL 16gg	.	.
.	16dd#X\ 16ff#X	.	.
8G'\J 8c 8e	16ee\ 16gg	.	.
.	16dd#\JJ 16ff#	.	.
8C'\L	16ee\LL 16gg	.	.
.	16dd#\ 16ff#	.	.
8G'\J 8c 8e	16ee\ 16gg	.	.
.	16dd#\JJ 16ff#	.	.
=95	=95	=95	=95
8C'\L	16ee\LL 16gg	.	.
.	16dd#X\ 16ff#X	.	.
8G'\J 8c 8e	16ee\ 16gg	.	.
.	16dd#\JJ 16ff#	.	.
8C'\L	16ee\LL 16gg	.	.
.	16dd#\ 16ff#	.	.
8G'\J 8c 8e	16ee\ 16gg	.	.
.	16dd#\JJ 16ff#	.	.
!!LO:LB:g=original
=96	=96	=96	=96
8C'\L	16ee\LL 16gg	.	.
.	16dd#X\ 16ff#X	.	.
8G'\J 8c 8e	16ee\ 16gg	.	.
.	16dd#\JJ 16ff#	.	.
8C'\L	16ee\LL 16gg	.	.
.	16dd#\ 16ff#	.	.
8G'\J 8c 8e	16ee\ 16gg	.	.
.	16dd#\JJ 16ff#	.	.
=97	=97	=97	=97
*	*Xped	*	*
8C'\L	8ee'\) 8gg	.	.
.	8qgg/	.	.
(8G\	(8.ddd\L	.	>
8c\ 8e	.	.	.
.	16ccc\L	.	.
8G\J)	16gg\	.	.
.	16ee\JJ	.	]]
=98	=98	=98	=98
8GG'/	8dd\)L	.	.
(8G\L	(16ff\L	.	.
.	16dd\JJ	.	.
8B\ 8f	4g/)	.	.
8G\J)	.	.	.
=99	=99	=99	=99
*^	*	*	*
8r	2C\	(8.cc\L	.	.
8G/L 8e	.	.	.	.
.	.	16dd\K	.	.
8G/ 8e	.	8ee'\)	.	.
.	.	(<8qee/	.	.
8G/J 8e	.	8gg'\J)	.	.
*v	*v	*	*	*
=100	=100	=100	=100
8GG'/	8dd'\	.	.
(8G\L	(32ff\LLL	.	.
.	32dd\	.	.
.	32ff\	.	.
.	32dd\JJJ	.	.
8B\ 8f	4g/)	.	.
8G\J)	.	.	.
!!LO:LB:g=original
=101	=101	=101	=101
*^	*	*	*
8r	2C\	(8.cc\L	.	.
8G/L 8e	.	.	.	.
.	.	16dd\K	.	.
8G/ 8e	.	8ee'\)	.	.
8G/J 8e	.	8dd#X'\J	.	.
=102	=102	=102	=102	=102
.	.	16qqee/LL	.	.
.	.	16qqff#X/JJ	.	.
8r	2C\	(8ee\L	.	.
8E/L 8G 8A#X	.	8dd#X'\)	.	.
8E/ 8G 8A#	.	8ee'\	.	.
8E/J 8G 8A#	.	8ff#'\J	.	.
=103	=103	=103	=103	=103
8BB\L	4BB/	(8.gg\L	.	.
8E\J 8G 8B	.	.	.	.
.	.	16aa\Jk	.	.
8BB\L	4BB/	8bb'\)	.	.
8F#X\J 8A 8B	.	(8dd#X\J	.	.
*v	*v	*	*	*
=104	=104	=104	=104
4E\ 4G 4B	16ee'\)	.	.
*	*ped	*	*
.	(16g\LL	.	.
.	16gg\	.	.
.	16g\JJ	.	.
4r	8gg'\L)	.	.
.	(16ff#X\L	.	.
.	16gg\JJ	.	.
=105	=105	=105	=105
*^	*^	*	*
8GG'/	4ryy	8gg'\L)	4ryy	.	.
*clefG2	*	*	*	*	*
8G'/ 8B 8f	.	8gg\J 8ddd	.	.	.
(8f/L	4G\ 4B	(8ddd/L	4gg\	.	f
16e/L	.	16ccc#X/L	.	.	.
*	*	*Xped	*	*	*
16f/JJ)	.	16ddd/JJ)	.	.	.
=106	=106	=106	=106	=106	=106
(8.c/L	2G\	8.eee/L	(8.gg\L	.	.
16d/K	.	16ddd/K	16gg\K	.	.
8e/	.	8cccn/	8gg\	.	.
8d/J)	.	8bb/J	8gg\J)	.	.
!!LO:LB:g=original
=107	=107	=107	=107	=107	=107
(8.c/L	2G\	8aa/L	(8ff#X\L	.	<
.	.	8bb/	8ee\	.	.
16d/K	.	.	.	.	.
8e/	.	8ccc/	8dd\	.	.
8f#X/J)	.	8ddd/J	8cc\J)	.	[[
=108	=108	=108	=108	=108	=108
(8g/L	4.G\	8bb/L	(8dd\L	.	>
8f#X/	.	8aa/	8cc\	.	.
8g/J)	.	8gg/J	8b\J)	.	.
8r	8ryy	(16ff#X\LL	8ryy	.	]
.	.	16gg\JJ	.	.	.
*clefF4	*	*	*	*	*
=109	=109	=109	=109	=109	=109
*	*	*ped	*	*	*
8GG'/	4ryy	8gg'\L)	4ryy	.	.
*clefG2	*	*	*	*	*
8G/ 8B 8fn	.	8gg'\J 8ddd	.	.	.
(8f/L	4G\ 4B	(8ddd/L	4gg\	.	.
16e/L	.	16ccc#X/L	.	.	.
*	*	*Xped	*	*	*
16f/JJ)	.	16ddd/JJ)	.	.	.
=110	=110	=110	=110	=110	=110
(8.c/L	2G\	8.eee/L	(8.gg\L	.	.
16d/K	.	16ddd/K	16gg\K	.	.
8e/	.	8ccc/	8gg\	.	.
8d/J)	.	8bb/J	8gg\J)	.	.
=111	=111	=111	=111	=111	=111
(8.c/L	2G\	(8aa/L	8ff#X\	.	>
.	.	8ddd^^</	4.cc\	.	.
16d/K	.	.	.	.	.
8a/	.	8.ff#/	.	.	.
8f#X/J)	.	.	.	.	.
.	.	16dd/Jk)	.	.	]
=112	=112	=112	=112	=112	=112
8g/L	4G\	8gg'/L	2b\	.	.
8d/J	.	8bb'/J	.	.	.
8g/L	4G\	(16ccc/LL	.	.	.
.	.	16bb/	.	.	.
8d/J	.	16aa/	.	.	.
.	.	16gg/JJ)	.	.	.
!!LO:PB:g=original
=113	=113	=113	=113	=113	=113
(8c/L	2G\	(8aa/L	8ff#X\	.	>
8d/	.	8ddd^^</	4.cc\	.	.
8a/	.	8.ff#/	.	.	.
8f#X/J)	.	.	.	.	.
.	.	16dd/Jk)	.	.	]]
=114	=114	=114	=114	=114	=114
8g/L	4G\	8gg'/L	2b\	.	.
8d/J	.	8bb'/J	.	.	.
8g/L	4G\	(16ccc/LL	.	.	.
.	.	16bb/	.	.	.
8d/J	.	16aa/	.	.	.
.	.	16gg/JJ)	.	.	.
=115	=115	=115	=115	=115	=115
(8c/L	2G\	(8aa/L	8ff#X\	.	>
8d/	.	8ddd^^</	4.cc\	.	.
8a/	.	8.ff#/	.	.	.
8f#X/J)	.	.	.	.	.
.	.	16dd/Jk)	.	.	]]
=116	=116	=116	=116	=116	=116
(8c/L	2G\	(8aa/L	8ff#X\	.	>
8d/	.	8ddd^^</	4.cc\	.	.
8a/	.	8.ff#/	.	.	.
8f#X/J)	.	.	.	.	.
.	.	16dd/Jk)	.	.	]]
*v	*v	*	*	*	*
*	*v	*v	*	*
=117	=117	=117	=117
8G/ 8g	8b'\ 8gg	.	.
*clefF4	*	*	*
*	*8va	*	*
*	*ped	*	*
!	!	!	!LO:DY:rj
8GG/L 8G	8ddd'\ 8fff	.	f
.	16qqfff/LL	.	.
.	16qqggg/JJ	.	.
8GG/ 8G	(8ddd\L 8fff	.	.
8GG/J 8G	8ccc'\J) 8eee	.	.
=118	=118	=118	=118
.	16qqddd/LL	.	.
.	16qqeee/JJ	.	.
8GG/L 8G	(8bb\L 8ddd	.	.
8GG/ 8G	8aa'\J) 8ccc	.	.
.	16qqbb/LL	.	.
.	16qqccc/JJ	.	.
8GG/ 8G	(8gg/L 8bb	.	.
8GG/J 8G	8ff'/J) 8aa	.	.
*	*X8va	*	*
!!LO:LB:g=original
=119	=119	=119	=119
!	!LO:TX:a:t=loco	!	!
8.GG/L 8.G	8.eem\L 8.gg	.	.
16GG/K 16G	(16dd#X\K 16ff#X	.	.
8GG/ 8G	8ddn\ 8ffn	.	.
8GG/J 8G	8cc\J) 8ee	.	.
=120	=120	=120	=120
*	*^	*	*
8GG/L 8G	8b'\L 8dd	4ryy	.	.
8GG/ 8G	[<8b'\J 8dd	.	.	.
8GG/J 8G	8.ff/L 8.aa	4b\]	.	.
8ryy	.	.	.	.
.	16ee/Jk 16gg	.	.	.
*	*Xped	*	*	*
*	*v	*v	*	*
=121	=121	=121	=121
*	*	*	*^
*	*ped	*	*	*
!	!	!	!LO:DY:b	!LO:DY:b=2:rj
8CC/	(4g^^\ [4ee [4gg	.	f	sf
8G\L 8c 8e	.	.	.	.
8G\ 8c 8e	16ee\LL] 16gg]	.	.	.
.	16dd#X\ 16ff#X	.	.	.
8G\J 8c 8e	16ee\ 16gg	.	.	.
.	16dd#\JJ 16ff#	.	.	.
*	*	*	*v	*v
=122	=122	=122	=122
8C'\L	16ee\LL 16gg	.	.
.	16dd#X\ 16ff#X	.	.
8G'\J 8c 8e	16ee\ 16gg	.	.
.	16dd#\JJ 16ff#	.	.
8C'\L	16ee\LL 16gg	.	.
.	16dd#\ 16ff#	.	.
8G'\J 8c 8e	16ee\ 16gg	.	.
.	16dd#\JJ 16ff#	.	.
!!LO:LB:g=original
=123	=123	=123	=123
8C'\L	16ee\LL 16gg	.	.
.	16dd#X\ 16ff#X	.	.
8G'\J 8c 8e	16ee\ 16gg	.	.
.	16dd#\JJ 16ff#	.	.
8C'\L	16ee\LL 16gg	.	.
.	16dd#\ 16ff#	.	.
8G'\J 8c 8e	16ee\ 16gg	.	.
.	16dd#\JJ 16ff#	.	.
=124	=124	=124	=124
8C'\L	16ee\LL 16gg	.	.
.	16dd#X\ 16ff#X	.	.
8G'\J 8c 8e	16ee\ 16gg	.	.
.	16dd#\JJ 16ff#	.	.
8C'\L	16ee\LL 16gg	.	.
.	16dd#\ 16ff#	.	.
!	!LO:TUP:a	!	!
8G\J 8c 8e	24ee\ 24gg	.	.
.	24ee\ 24gg	.	.
*	*Xped	*	*
.	24dd#\JJ 24ff#	.	.
=125	=125	=125	=125
8C'\L	8ee'\) 8gg	.	.
.	8qgg/	.	.
(8G\	4ccc^^\	.	.
8c\ 8e	.	.	.
8G\J)	8cc\	.	.
=126	=126	=126	=126
8GG'/	8dd'\L	.	p
.	8qdd/	.	.
(8G\L	8ff'\J	.	.
8B\ 8f	4g^^/	.	.
8G\J)	.	.	.
=127	=127	=127	=127
*^	*	*	*
8r	2C\	(8.cc\L	.	.
8G/L 8e	.	.	.	.
.	.	16dd\K	.	.
8G/ 8e	.	8ee\)	.	.
.	.	8qee/	.	.
8G/J 8e	.	8gg'\J	.	.
*v	*v	*	*	*
!!LO:LB:g=original
=128	=128	=128	=128
8GG'/	8dd'\L	.	.
(8G\L	(16ff\L	.	.
.	16dd\JJ	.	.
8B\ 8f	4g/)	.	.
8G\J)	.	.	.
=129	=129	=129	=129
*^	*	*	*
8r	2C\	(8.cc\L	.	.
8G/L 8e	.	.	.	.
.	.	16dd\K	.	.
8G/ 8e	.	8ee\)	.	.
.	.	(8qee/	.	.
8G/J 8e	.	8ee\J) 8ccc	.	.
*v	*v	*	*	*
=130	=130	=130	=130
.	[<(>8qff/	.	.
8FF'/	8ff'\L)] 8ddd	.	.
.	(8qccc/	.	.
(8F\L	8ccc'\Jk) 8dd	.	.
.	(>8qa/	.	.
8A\ 8f	4a^^\) 4dd	.	.
8F\J)	.	.	.
=131	=131	=131	=131
.	(8qf#X/	.	.
8GG'/	8g\L)	.	.
.	(8qg/	.	.
(8G\L	8b\)	.	.
.	(8qb/	.	.
8B\ 8f	8dd\)	.	.
.	(8qdd/	.	.
8G\J)	8ffn\J)	.	.
=132	=132	=132	=132
.	(8qee/	.	.
*^	*	*	*
8r	2C\	8cc\L) 8ee	.	.
.	.	(8qdd/	.	.
8G/L 8c	.	8g\J) 8dd	.	.
.	.	(8qcc/	.	.
8G/ 8c	.	4e^^/) 4cc	.	.
8G/J 8c	.	.	.	.
*v	*v	*	*	*
=133	=133	=133	=133
8CC'/	(8.cc\L 8.ee	.	<
(8G\L	.	.	.
.	16dd\K 16ff	.	.
8c\ 8e	8ee'\) 8gg	.	.
8G\J)	8ee\J 8ccc	.	[[
!!LO:LB:g=original
=134	=134	=134	=134
*	*8va	*	*
.	(>16qqfff/LL	.	.
.	16qqggg/JJ	.	.
*	*ped	*	*
!	!	!	!LO:DY:rj
8FF'/	8aa\L 8fff	.	f
(8F\L	8gg\J) 8eee	.	.
.	(16qqddd/LL	.	.
.	16qqeee/JJ	.	.
8A\ 8d 8f	8ff/L 8ddd	.	.
8F\J)	8ee/J) 8ccc	.	.
*	*Xped	*	*
=135	=135	=135	=135
*	*ped	*	*
.	(16qqbb/LL	.	.
.	16qqccc/JJ	.	.
8GG/	8dd/L 8bb	.	.
[<8G\	8cc/J) 8aa	.	.
*	*X8va	*	*
!	!LO:TX:a:t=loco.	!	!
4G\] 4B 4f	(8g\L 8dd 8gg	.	.
.	16ff\L	.	.
*	*Xped	*	*
.	16dd\JJ)	.	.
=136	=136	=136	=136
*^	*^	*	*
(8c/L	4C\	(8cc/L	4e\	.	p
8A-X/	.	8cc#X/	.	.	.
8G/	4C\	8.dd/	4f\	.	.
8B/J)	.	.	.	.	.
.	.	16g/Jk)	.	.	.
=137	=137	=137	=137	=137	=137
(8c/L	4C\	(8cc/L	4e\	.	.
8A-X/	.	8cc#X/	.	.	.
8G/	4C\	8.dd/	4f\	.	.
8B/J)	.	.	.	.	.
.	.	16g/Jk)	.	.	.
=138	=138	=138	=138	=138	=138
(8c/L	4C\	8cc/L	4e\	.	.
8G/	.	(<8gg^^/	.	.	.
8B/	4C\	8dd'/)	4f\	.	.
8G/J)	.	8gg^^/J	.	.	.
=139	=139	=139	=139	=139	=139
*	*^	*	*	*	*
4c/	4C\	(8E\L	(8ee/L	4g\	.	.
.	.	16F\L	16dd/L	.	.	.
.	.	16G\JJ)	16cc/JJ)	.	.	.
4B/	4C\	(8B\L	(8g/L	4f\	.	.
.	.	16A\L	16a/L	.	.	.
.	.	16G\JJ)	16b/JJ)	.	.	.
*	*v	*v	*	*	*	*
!!LO:LB:g=original
=140	=140	=140	=140	=140	=140
(8c/L	4C\	(8cc/L	4e\	.	.
8A-X/	.	8cc#X/	.	.	.
8G/	4C\	8.dd/	4f\	.	.
8B/J)	.	.	.	.	.
.	.	16g/Jk)	.	.	.
=141	=141	=141	=141	=141	=141
(8c/L	4C\	(8cc/L	4e\	.	.
8A-X/	.	8cc#X/	.	.	.
8G/	4C\	8.dd/	4f\	.	.
8B/J)	.	.	.	.	.
.	.	16g/Jk)	.	.	.
=142	=142	=142	=142	=142	=142
(8c/L	4C\	8cc'/L	4e\	.	.
8G/	.	(8gg^^/	.	.	.
8B/	4C\	8dd'/)	4f\	.	.
8G/J)	.	8gg^^/J	.	.	.
=143	=143	=143	=143	=143	=143
*	*^	*	*	*	*
4c/	4C\	(8E\L	(8ee/L	4g\	.	.
.	.	16F\L	16dd/L	.	.	.
.	.	16G\JJ)	16cc/JJ)	.	.	.
4B/	4C\	(8B\L	(8g/L	4f\	.	.
.	.	16A\L	16a/L	.	.	.
.	.	16G\JJ)	16b/JJ)	.	.	.
=144	=144	=144	=144	=144	=144	=144
4c/	4C\	(8E\L	(8ee/L	4g\	.	<
.	.	16F\L	16dd/L	.	.	.
.	.	16G\JJ)	16cc/JJ)	.	.	.
4B/	4C\	(8B\L	(8g/L	4f\	.	.
.	.	16A\L	16a/L	.	.	.
.	.	16G\JJ)	16b/JJ)	.	.	.
=145	=145	=145	=145	=145	=145	=145
4c/	4C\	(8E\L	(8ee/L	4g\	.	.
.	.	16F\L	16dd/L	.	.	.
.	.	16G\JJ)	16cc/JJ)	.	.	.
4B/	4C\	(8B\L	(8g/L	4f\	.	[
.	.	16A\L	16a/L	.	.	.
.	.	16G\JJ)	16b/JJ)	.	.	.
*v	*v	*v	*	*	*	*
*	*v	*v	*	*
=146	=146	=146	=146
8C'\ 8c	8e'/ 8cc	.	f
8CC/ 8C	8cc'\ 8ee 8ccc	.	sf
4r;	4r;	.	.
==	==	==	==
*-	*-	*-	*-
!!!system-decoration: {(s1,s2)}
!!!RDF**kern: < = below
!!!RDF**kern: > = above
!!!RDF**kern: N = linked
!!!ENC: Berenika Jozajtis
!!!END: 2022-12-15
!!!ENC: Marta Chmielewska
!!!END: 2023-07-12
!!!YEC: Copyright 2022 Narodowy Instytut Fryderyka Chopina (https://polishscores.org)
!!!YEM: License CC-BY-4.0 (https://creativecommons.org/licenses/by/4.0)
